tools/download-figma-icons/icons/outlined-large/speechbubble.svg

<svg width="65" height="64" viewBox="0 0 65 64" fill="none" xmlns="http://www.w3.org/2000/svg">
<path fill-rule="evenodd" clip-rule="evenodd" d="M61.0225 35.498C61.0225 36.878 59.9005 38 58.5205 38H49.8515C49.1555 38 48.5505 38.479 48.3915 39.157L46.1305 48.779L36.8755 38.496C36.5895 38.181 36.1845 38 35.7595 38H17.2825C15.9025 38 14.7805 36.878 14.7805 35.498V9.502C14.7805 8.123 15.9025 7 17.2825 7H58.5205C59.9005 7 61.0225 8.123 61.0225 9.502V35.498ZM30.2755 49.217C30.2755 49.768 29.8275 50.215 29.2765 50.215H18.2895C17.8645 50.215 17.4595 50.394 17.1755 50.71L12.0985 56.334L11.0075 51.392C10.8565 50.704 10.2475 50.215 9.5425 50.215H4.0185C3.4685 50.215 3.0205 49.768 3.0195 49.218L3.0005 33.244C3.0005 32.977 3.1035 32.727 3.2925 32.538C3.4805 32.349 3.7315 32.245 3.9995 32.245H11.7805V35.498C11.7805 38.532 14.2485 41 17.2825 41H30.2755V49.217ZM58.5205 4H17.2825C14.2485 4 11.7805 6.468 11.7805 9.502V29.245H3.9995C2.9295 29.245 1.9245 29.661 1.1685 30.418C0.414503 31.174 -0.00149741 32.18 0.000502586 33.248L0.0195026 49.222C0.0225026 51.424 1.8165 53.215 4.0185 53.215H8.3375L9.7965 59.823C9.9175 60.372 10.3345 60.807 10.8775 60.95C11.0045 60.983 11.1335 61 11.2615 61C11.6805 61 12.0865 60.824 12.3755 60.505L18.9565 53.215H29.2765C31.4815 53.215 33.2755 51.421 33.2755 49.217V41H35.0915L45.8205 52.919C46.1095 53.239 46.5165 53.415 46.9355 53.415C47.0595 53.415 47.1845 53.399 47.3085 53.368C47.8485 53.229 48.2685 52.802 48.3955 52.258L51.0405 41H58.5205C61.5545 41 64.0225 38.532 64.0225 35.498V9.502C64.0225 6.468 61.5545 4 58.5205 4ZM22.0205 18.957H40.7365C41.5645 18.957 42.2365 18.286 42.2365 17.457C42.2365 16.628 41.5645 15.957 40.7365 15.957H22.0205C21.1925 15.957 20.5205 16.628 20.5205 17.457C20.5205 18.286 21.1925 18.957 22.0205 18.957ZM22.0202 25.4536H53.7822C54.6102 25.4536 55.2822 26.1246 55.2822 26.9536C55.2822 27.7826 54.6102 28.4536 53.7822 28.4536H22.0202C21.1922 28.4536 20.5202 27.7826 20.5202 26.9536C20.5202 26.1246 21.1922 25.4536 22.0202 25.4536Z" fill="black"/>
</svg>

<svg width="65" height="64" viewBox="0 0 65 64" fill="none" xmlns="http://www.w3.org/2000/svg"><path fill-rule="evenodd" clip-rule="evenodd" d="M61.023 35.498A2.504 2.504 0 0 1 58.52 38h-8.669a1.5 1.5 0 0 0-1.46 1.157l-2.26 9.622-9.255-10.283A1.509 1.509 0 0 0 35.76 38H17.283a2.504 2.504 0 0 1-2.503-2.502V9.502A2.505 2.505 0 0 1 17.282 7h41.239a2.505 2.505 0 0 1 2.502 2.502v25.996ZM30.274 49.217a1 1 0 0 1-.998.998H18.288c-.425 0-.83.179-1.114.495l-5.077 5.624-1.09-4.942a1.498 1.498 0 0 0-1.465-1.177H4.019a1 1 0 0 1-1-.997l-.018-15.974a.99.99 0 0 1 .292-.706.99.99 0 0 1 .706-.293h7.782v3.253A5.508 5.508 0 0 0 17.282 41h12.994v8.217ZM58.52 4H17.282a5.508 5.508 0 0 0-5.502 5.502v19.743H4c-1.07 0-2.075.416-2.832 1.173a3.974 3.974 0 0 0-1.167 2.83L.02 49.222a4.004 4.004 0 0 0 3.999 3.993h4.319l1.459 6.608A1.498 1.498 0 0 0 11.26 61c.42 0 .825-.176 1.115-.495l6.58-7.29h10.32a4.003 4.003 0 0 0 4-3.998V41h1.816L45.82 52.919a1.503 1.503 0 0 0 1.488.449 1.5 1.5 0 0 0 1.087-1.11L51.04 41h7.48a5.508 5.508 0 0 0 5.501-5.502V9.502A5.508 5.508 0 0 0 58.52 4Zm-36.5 14.957h18.716a1.5 1.5 0 1 0 0-3H22.021a1.5 1.5 0 1 0 0 3Zm0 6.497h31.762a1.5 1.5 0 1 1 0 3H22.02a1.5 1.5 0 1 1 0-3Z" fill="currentColor"/></svg>
